X: 38
M:6/8
L:1/8
K:D
d>ed dAF|ABA A2 g|f>ef dBA|Bdd d2:|
|:A|dfa afd|cde ecA|dfa afd|faa a2 A|
dfa afd|cde eag|fef dBA|Bdd d2:||

